X:5514
T:Remembrance
O:england
M:3/4
L:1/4
Q:100
C:Words and music by Rhonwen y Llysieuyddes (m.k.a. Julia West) (c) 1979
S:From "A Breeze Through the CONduit"
B:A Breeze Through the CONduit, (c) 1992 by Julia West
N:This is a woman's viewpoint of war--the side not seen in the bards'
N:songs of the glories of battle.
N:Owain Glyn Dwr (Glendower) was the
N:Welsh Prince who, in the closing years of the fourteenth century, took
N:most of Wales back from the English.  Unfortunately for the Welsh
N:people, the tide soon turned and by 1415 Glyn Dwr was in hiding and the
N:English had taken back their former territories.
D:On "A Breeze Through the CONduit" tape
W:'Tis now, in the warm tender green time of spring
W:I think of my brother, the songs he did sing.
W:With crwth or with harp by some cold mountain stream
W:Amidst the pale flowers with his music he'd dream.
W:He'd sing of his love for the good things he knew--
W:Fair women, good mead, and companions so true.
W:Chorus:
W:He went off to fight in the late snows of spring
W:For Glyn Dwr, our Prince, 'gainst the troops of the King.
W:With a song on his lips he did fight--and was killed.
W:And the music within him forever was stilled.
K:G
D/2E/2|"D" F E D|"A" E D E|"D" F E D|"A" E2 D/2E/2|"D" F E D|"A" E F G
"D" A G F|"A" E2 A|"D" A F A/2G/2| F2 G/2 A/2|"G" B2 B/2 G/2|"A" E2 E|
E F G|"D" F G A|"G" G G F|"A" E2 D|"G" D G B|"D" A2 G/2 F/2|"G" G G F|
"A" E2 E|"D" F/2G/2 A "A" E|"D" F/2G/2 A G| F> F "A" E|"D" D2||\
K:F
"Chorus" D/2E/2|"Dm" F E D|"A" E D E|"Dm" F E D|
"A" E2 D/2 E/2|"Dm" F D|
"A" E F G|"Dm" F> F "A" E|"Dm" D2 A/2 A/2|A F A|"A" G A B|
"Dm" A2 A/2 A/2
|A2 A/2 G/2|F E D|F E D|"A" E3|F2 E|"Dm" D3||


